assets/icons/past_president_colored.svg

<svg fill="none" height="33" viewBox="0 0 35 33" width="35" xmlns="http://www.w3.org/2000/svg" xmlns:xlink="http://www.w3.org/1999/xlink"><clipPath id="a"><path d="m0 0h35v33h-35z"/></clipPath><g clip-path="url(#a)" fill="#000"><path d="m35 23.6967c0-.2866-.0648-.3611-.3776-.3583-1.6207.0172-3.242.0079-4.897.0079.1479-.3318.1936-.6536.1906-.9882-.008-1.3372.0041-2.6745-.01-4.0131-.0022-.2462.0587-.3114.3255-.3085 1.3043.0147 2.6094 0 3.9138.0122.2328 0 .2881-.0592.2873-.2731-.0091-1.9449-.0091-3.8899 0-5.8351 0-.215-.0564-.2755-.2885-.2723-.9526.0129-1.9052 0-2.856.0097-.2008.0021-.2572-.0524-.2511-.2387.0137-.4525.0054-.9061.0042-1.3591-.006-.98737-.3354-1.94905-.9435-2.75408s-1.4652-1.4143-2.4547-1.74485c-.1346-.04479-.2896-.04407-.4085-.14332 1.4434-1.46908 1.1778-3.39573-.0141-4.511873-1.2327-1.151258-3.2169-1.242986-4.5392-.196713-.695.548936-1.1142 1.250866-1.2125 2.095766-.1234 1.06132.2702 1.96391 1.0914 2.72318-.7069.1684-1.3654.3601-1.9853.64818-1.4359.66647-2.858 1.35944-4.306 2.00655-.7849.35008-1.4861.91728-2.4315.89758-.1074-.00215-.2172.07166-.325.11573l-3.81591 1.48735c-.60664.2365-1.2129.4737-1.88203.7353 1.14698-1.59668.67675-3.43554-.67028-4.41086-1.39237-1.00794-3.31289-.85314-4.52656.3515-1.33636 1.32576-1.21366 2.95856.36201 4.70826-1.92243.9574-2.9676637 2.4121-2.97223633 4.4638-.00889129 4.8184-.00965346 9.6366-.00228639 14.4547 0 1.0642.87642772 1.8908 1.99863272 1.8908 10.88366 0 21.76756.0021 32.65146.0061.274 0 .343-.0613.343-.3225-.0099-2.9608-.0093-5.9222.0019-8.884zm-3.958-10.362c.0171-.5955.0171-.5955.6409-.5955.423 0 .8467.0129 1.2693-.005.2568-.0108.3597.034.3555.3131-.0194 1.2154-.0148 2.4312-.0023 3.6469.0023.2261-.0476.2971-.3025.2931-1.0338-.015-2.0684-.0061-3.1029-.0061-1.0346 0-2.0688-.0057-3.103.0047-.2103.0021-.2774-.0387-.2751-.2508.0117-1.2486.0117-2.4975 0-3.7465 0-.2061.0572-.2867.2736-.2509.0235.0018.047.0018.0705 0 .2461.0029.5556-.0784.7213.0316.181.12.0484.43.0694.6557.0762.837.8501 1.4558 1.7932 1.4332.8383-.0186 1.5688-.7198 1.5921-1.5235zm-3.9546 4.9447c-.0031-.1892.0571-.244.2553-.2372.3986.014.8002.01 1.1976 0 .1666-.0036.2504.0165.2493.2082-.0088 1.4354 0 2.8711-.0088 4.3065-.0054.2073-.097.4043-.2551.5489-.1581.1445-.3701.225-.5906.2242-.2205-.0007-.4319-.0827-.5889-.2283-.1569-.1456-.247-.3432-.2508-.5505-.0122-.7166-.0031-1.4354-.0031-2.1531-.0003-.7066.0065-1.4132-.0049-2.1187zm-2.2654-17.21691c.5988-.0003 1.1734.22204 1.5986.61854.4252.39649.6663.93498.671 1.49802.0038 1.17239-1.0289 2.12765-2.2997 2.12694-1.1881 0-2.2067-.96744-2.2139-2.10294-.0084-1.16845 1.0067-2.13626 2.244-2.14056zm-9.2055 8.65862c2.207-1.00327 4.3059-2.23407 6.6353-2.97757 1.5189-.4848 3.1197-.5475 4.6912-.23004 1.6987.34326 2.9341 1.83814 2.9653 3.47563.0199 1.07167.0073 2.14377.0038 3.21587 0 .3644-.2198.5887-.5555.5923-.3521.0039-.5689-.2225-.5716-.6117-.0034-.8957.0038-1.7915-.0027-2.6855-.0076-1.04485-.4009-1.95282-1.1161-2.74755-.1379-.15336-.2225-.13975-.3536-.00323-.1803.18883-.4706.33395-.5445.54929-.074.21535.2534.37659.381.57653.4325.66789.5312 1.39746.5083 2.15956-.019.6417-.0038.6421-.6977.6421-.4233 0-.8474.0165-1.2693-.0061-.2602-.014-.3014.0749-.2995.2963.0111 1.3702-.0023 2.7404.0126 4.1106.0027.2483-.0793.3382-.3292.3909-.5122.1075-1.0155.2533-1.5243.382-.6737.1705-.9762.5374-.9766 1.1913v4.3761c0 .5586-.3536.9377-.8593.9291-.4954-.0082-.8314-.3784-.8326-.9208-.0015-1.0389-.0015-2.078 0-3.1174 0-1.0169 0-2.0335 0-3.0499 0-.7059.3254-1.2222 1.0026-1.5408.7007-.3282 1.3958-.6675 2.1015-.986.2039-.0921.2907-.1896.2888-.4178-.0129-1.6905-.0129-3.3813 0-5.0723 0-.23111-.0621-.27339-.3048-.29417-.6829-.05841-1.2727.13293-1.8702.4228-1.8493.89579-3.7161 1.76147-5.5779 2.63507-.5438.2551-1.0254.1075-1.2194-.363-.1429-.3601-.0488-.75605.3144-.92159zm8.0879 12.01999c.0053-1.1921.0076-2.3846-.0042-3.5767 0-.1899.0556-.2716.2465-.315.4081-.0924.8147-.1931 1.216-.3096.1905-.0555.2686-.0218.2351.167-.0469.2641.0411.3942.3471.3393.2469-.0451.2195.1154.2191.2613v3.8085c0 .4074-.0263.8169.1944 1.224h-2.6293c.2465-.5246.173-1.0653.1753-1.5988zm-8.0887-9.4577c.0861-.0774.1768-.0903.2873-.082.4104.0308.7823-.0817 1.1462-.2537 1.9528-.9216 3.9079-1.8396 5.8652-2.75402.0614-.02867.1235-.05554.2287-.10176 0 1.24158-.0038 2.43648.0042 3.62828 0 .1705-.0633.2508-.2222.3225-.4954.2207-.9843.4586-1.4762.6879-1.1275.5264-1.6991 1.3727-1.6946 2.5634.0061 1.8568.0001 3.7132.0035 5.5696 0 .4923-.0701.9932.1955 1.4831h-2.5828c-1.81 0-3.6201.0039-5.4301-.0047-.1032-.0041-.2062.0127-.3019.0492-.0958.0364-.1821.0918-.2533.1622-.3776.3479-.7731.6779-1.1637 1.0173-.1109-.0606-.0553-.1591-.0556-.2355-.005-.8599 0-1.7238-.0039-2.5859-.0012-.7025-.29879-1.3758-.82748-1.8721-.52868-.4963-1.24522-.7751-1.99229-.7751-.56549-.0022-.56549-.0022-.56549-.5307 0-.6632.01487-1.3257-.00762-1.989-.008-.2483.07888-.3644.31323-.4658 2.66739-1.1705 5.33215-2.3462 7.99415-3.5272.1905-.0856.3853-.1673.5392-.306zm-12.7886-2.74108c.00343-1.16452 1.02885-2.11906 2.27414-2.11405 1.22243.00645 2.23604.96315 2.23947 2.11405.00343 1.16628-1.01818 2.13048-2.25776 2.13048-1.23957 0-2.25928-.9631-2.25585-2.13048zm0 15.95998c0 1.8238.00381 3.6476-.00228 5.4714 0 .6729-.67904 1.071-1.25749.7496-.32618-.181-.43592-.4626-.43516-.8109.00533-2.2215.00622-4.443.00267-6.6646v-1.4386c.49537.3257.98198.5088 1.51888.5303.21949.009.173.1272.17338.2397.00077.6409.00064 1.2819-.00038 1.9231zm-1.69264-4.8828c-.00229-1.3701-.00229-2.7402 0-4.1102.00762-2.1319 1.74637-3.8443 4.00603-3.7475 1.70904.0716 3.24164-.2978 4.75824-.9675 1.28837-.5676 2.62167-1.0455 3.93707-1.5586.0815-.0319.1593-.0982.277-.0656-.0347.4859.0865.9316.4119 1.3257.1631.1971-.0838.1878-.1581.2211-1.3066.5862-2.619 1.1627-3.9294 1.7425-1.49987.6654-2.99818 1.3336-4.50259 1.9893-.20463.0893-.29646.1792-.29379.4107.01524 1.3365.01524 2.6733 0 4.0106-.00343.2601.08078.3092.33266.2984.45727-.0193.91453-.0104 1.37447-.0043.92939.0126 1.67893.7055 1.68388 1.5766.00877 1.6576.00457 3.3148 0 4.9723 0 .5077-.36124.8743-.84442.8761s-.84442-.3673-.84594-.8736c-.00343-1.0939 0-2.1878 0-3.2818 0-.7166-.46336-1.1487-1.22814-1.1494-1.06963 0-2.13887 0-3.20811 0-1.04257-.0022-1.76924-.6858-1.77076-1.6648zm2.81714 2.9228c0-.1648.05678-.201.21987-.1989.59864.0083 1.19766.0115 1.79629 0 .20349-.0046.25074.0563.24921.2397-.00914 1.0266 0 2.0532-.00724 3.0815-.00228.3365.04611.6583.21606.9549.0644.1129.07621.1874-.0381.2835-.79717.6808-1.58862 1.3669-2.43342 2.0957.00114-2.1979.00304-4.3273-.00267-6.4564zm29.9163 8.0201c0 .2017-.0328.2795-.2786.2795-9.8716-.0067-19.7431-.0087-29.61446-.0061-.05639 0-.11431-.0057-.17414-.009.01029-.1995.10441-.3378.25035-.4636 1.04791-.903 2.09213-1.8096 3.13266-2.72.12651-.111.22635-.1354.40125-.087 1.35199.3748 2.59764-.4999 2.56484-1.831-.0118-.4726.0926-.8291.516-1.0972.1675-.1033.3161-.2314.4401-.3794.5967-.7399 1.384-.8657 2.3378-.86 6.6749.0359 13.3499.0215 20.0248.0136.3049 0 .4066.0509.4043.3652-.0167 2.2649-.0118 4.5298-.0049 6.795z"/><path d="m24.6165 26c-.554 0-.554 0-.554.5415 0 .5553 0 .5553.5398.5553.554 0 .5539 0 .5539-.5415 0-.5553 0-.5553-.5397-.5553z"/><path d="m27.6763 26c-.52 0-.5201 0-.5201.5071 0 .5897 0 .5897.5743.5897.5195 0 .5195 0 .5195-.5071 0-.5897 0-.5897-.5737-.5897z"/><path d="m30.7679 26c-.5179 0-.5179 0-.5179.5092 0 .5876 0 .5876.5758.5876.518 0 .518 0 .518-.5069 0-.5899 0-.5899-.5759-.5899z"/></g></svg>

<svg width="35" height="33" viewBox="0 0 35 33" fill="none" xmlns="http://www.w3.org/2000/svg">
<g clip-path="url(#clip0_235_2260)">
<path d="M35 23.6967C35 23.4101 34.9352 23.3356 34.6224 23.3384C33.0017 23.3556 31.3804 23.3463 29.7254 23.3463C29.8733 23.0145 29.919 22.6927 29.916 22.3581C29.908 21.0209 29.9201 19.6836 29.906 18.345C29.9038 18.0988 29.9647 18.0336 30.2315 18.0365C31.5358 18.0512 32.8409 18.0365 34.1453 18.0487C34.3781 18.0487 34.4334 17.9895 34.4326 17.7756C34.4235 15.8307 34.4235 13.8857 34.4326 11.9405C34.4326 11.7255 34.3762 11.665 34.1441 11.6682C33.1915 11.6811 32.2389 11.6682 31.2881 11.6779C31.0873 11.68 31.0309 11.6255 31.037 11.4392C31.0507 10.9867 31.0424 10.5331 31.0412 10.0801C31.0352 9.09273 30.7058 8.13105 30.0977 7.32602C29.4896 6.52099 28.6325 5.91172 27.643 5.58117C27.5084 5.53638 27.3534 5.5371 27.2345 5.43785C28.6779 3.96877 28.4123 2.04212 27.2204 0.925977C25.9877 -0.225281 24.0035 -0.317009 22.6812 0.729264C21.9862 1.2782 21.567 1.98013 21.4687 2.82503C21.3453 3.88635 21.7389 4.78894 22.5601 5.54821C21.8532 5.71661 21.1947 5.90831 20.5748 6.19639C19.1389 6.86286 17.7168 7.55583 16.2688 8.20294C15.4839 8.55302 14.7827 9.12022 13.8373 9.10052C13.7299 9.09837 13.6201 9.17218 13.5123 9.21625L9.69639 10.7036C9.08975 10.9401 8.48349 11.1773 7.81436 11.4389C8.96134 9.84222 8.49111 8.00336 7.14408 7.02804C5.75171 6.0201 3.83119 6.1749 2.61752 7.37954C1.28116 8.7053 1.40386 10.3381 2.97953 12.0878C1.0571 13.0452 0.0118663 14.4999 0.00729367 16.5516C-0.00159762 21.37 -0.00235979 26.1882 0.00500728 31.0063C0.00500728 32.0705 0.881435 32.8971 2.00364 32.8971C12.8873 32.8971 23.7712 32.8992 34.6551 32.9032C34.9291 32.9032 34.9981 32.8419 34.9981 32.5807C34.9882 29.6199 34.9888 26.6585 35 23.6967ZM31.042 13.3347C31.0591 12.7392 31.0591 12.7392 31.6829 12.7392C32.1059 12.7392 32.5296 12.7521 32.9522 12.7342C33.209 12.7234 33.3119 12.7682 33.3077 13.0473C33.2883 14.2627 33.2929 15.4785 33.3054 16.6942C33.3077 16.9203 33.2578 16.9913 33.0029 16.9873C31.9691 16.9723 30.9345 16.9812 29.9 16.9812C28.8654 16.9812 27.8312 16.9755 26.797 16.9859C26.5867 16.988 26.5196 16.9472 26.5219 16.7351C26.5336 15.4865 26.5336 14.2376 26.5219 12.9886C26.5219 12.7825 26.5791 12.7019 26.7955 12.7377C26.819 12.7395 26.8425 12.7395 26.866 12.7377C27.1121 12.7406 27.4216 12.6593 27.5873 12.7693C27.7683 12.8893 27.6357 13.1993 27.6567 13.425C27.7329 14.262 28.5068 14.8808 29.4499 14.8582C30.2882 14.8396 31.0187 14.1384 31.042 13.3347ZM27.0874 18.2794C27.0843 18.0902 27.1445 18.0354 27.3427 18.0422C27.7413 18.0562 28.1429 18.0522 28.5403 18.0422C28.7069 18.0386 28.7907 18.0587 28.7896 18.2504C28.7808 19.6858 28.7896 21.1215 28.7808 22.5569C28.7754 22.7642 28.6838 22.9612 28.5257 23.1058C28.3676 23.2503 28.1556 23.3308 27.9351 23.33C27.7146 23.3293 27.5032 23.2473 27.3462 23.1017C27.1893 22.9561 27.0992 22.7585 27.0954 22.5512C27.0832 21.8346 27.0923 21.1158 27.0923 20.3981C27.092 19.6915 27.0988 18.9849 27.0874 18.2794ZM24.822 1.06249C25.4208 1.06219 25.9954 1.28453 26.4206 1.68103C26.8458 2.07752 27.0869 2.61601 27.0916 3.17905C27.0954 4.35144 26.0627 5.3067 24.7919 5.30599C23.6038 5.30599 22.5852 4.33855 22.578 3.20305C22.5696 2.0346 23.5847 1.06679 24.822 1.06249ZM15.6165 9.72111C17.8235 8.71784 19.9224 7.48704 22.2518 6.74354C23.7707 6.25874 25.3715 6.19604 26.943 6.5135C28.6417 6.85676 29.8771 8.35164 29.9083 9.98913C29.9282 11.0608 29.9156 12.1329 29.9121 13.205C29.9121 13.5694 29.6923 13.7937 29.3566 13.7973C29.0045 13.8012 28.7877 13.5748 28.785 13.1856C28.7816 12.2899 28.7888 11.3941 28.7823 10.5001C28.7747 9.45525 28.3814 8.54728 27.6662 7.75255C27.5283 7.59919 27.4437 7.6128 27.3126 7.74932C27.1323 7.93815 26.842 8.08327 26.7681 8.29861C26.6941 8.51396 27.0215 8.6752 27.1491 8.87514C27.5816 9.54303 27.6803 10.2726 27.6574 11.0347C27.6384 11.6764 27.6536 11.6768 26.9597 11.6768C26.5364 11.6768 26.1123 11.6933 25.6904 11.6707C25.4302 11.6567 25.389 11.7456 25.3909 11.967C25.402 13.3372 25.3886 14.7074 25.4035 16.0776C25.4062 16.3259 25.3242 16.4158 25.0743 16.4685C24.5621 16.576 24.0588 16.7218 23.55 16.8505C22.8763 17.021 22.5738 17.3879 22.5734 18.0418C22.5734 19.5004 22.5734 20.9591 22.5734 22.4179C22.5734 22.9765 22.2198 23.3556 21.7141 23.347C21.2187 23.3388 20.8827 22.9686 20.8815 22.4262C20.88 21.3873 20.88 20.3482 20.8815 19.3088C20.8815 18.2919 20.8815 17.2753 20.8815 16.2589C20.8815 15.553 21.2069 15.0367 21.8841 14.7181C22.5848 14.3899 23.2799 14.0506 23.9856 13.7321C24.1895 13.64 24.2763 13.5425 24.2744 13.3143C24.2615 11.6238 24.2615 9.933 24.2744 8.242C24.2744 8.01089 24.2123 7.96861 23.9696 7.94783C23.2867 7.88942 22.6969 8.08076 22.0994 8.37063C20.2501 9.26642 18.3833 10.1321 16.5215 11.0057C15.9777 11.2608 15.4961 11.1132 15.3021 10.6427C15.1592 10.2826 15.2533 9.88665 15.6165 9.72111ZM23.7044 21.7411C23.7097 20.549 23.712 19.3565 23.7002 18.1644C23.7002 17.9745 23.7558 17.8928 23.9467 17.8494C24.3548 17.757 24.7614 17.6563 25.1627 17.5398C25.3532 17.4843 25.4313 17.518 25.3978 17.7068C25.3509 17.9709 25.4389 18.101 25.7449 18.0461C25.9918 18.001 25.9644 18.1615 25.964 18.3074C25.964 19.577 25.964 20.8465 25.964 22.1159C25.964 22.5233 25.9377 22.9328 26.1584 23.3399H23.5291C23.7756 22.8153 23.7021 22.2746 23.7044 21.7411ZM15.6157 12.2834C15.7018 12.206 15.7925 12.1931 15.903 12.2014C16.3134 12.2322 16.6853 12.1197 17.0492 11.9477C19.002 11.0261 20.9571 10.1081 22.9144 9.19368C22.9758 9.16501 23.0379 9.13814 23.1431 9.09192C23.1431 10.3335 23.1393 11.5284 23.1473 12.7202C23.1473 12.8907 23.084 12.971 22.9251 13.0427C22.4297 13.2634 21.9408 13.5013 21.4489 13.7306C20.3214 14.257 19.7498 15.1033 19.7543 16.294C19.7604 18.1508 19.7544 20.0072 19.7578 21.8636C19.7578 22.3559 19.6877 22.8568 19.9533 23.3467H17.3705C15.5605 23.3467 13.7504 23.3506 11.9404 23.342C11.8372 23.3379 11.7342 23.3547 11.6385 23.3912C11.5427 23.4276 11.4564 23.483 11.3852 23.5534C11.0076 23.9013 10.6121 24.2313 10.2215 24.5707C10.1106 24.5101 10.1662 24.4116 10.1659 24.3352C10.1609 23.4753 10.1659 22.6114 10.162 21.7493C10.1608 21.0468 9.86321 20.3735 9.33452 19.8772C8.80584 19.3809 8.0893 19.1021 7.34223 19.1021C6.77674 19.0999 6.77674 19.0999 6.77674 18.5714C6.77674 17.9082 6.79161 17.2457 6.76912 16.5824C6.76112 16.3341 6.848 16.218 7.08235 16.1166C9.74974 14.9461 12.4145 13.7704 15.0765 12.5894C15.267 12.5038 15.4618 12.4221 15.6157 12.2834ZM2.8271 9.54232C2.83053 8.3778 3.85595 7.42326 5.10124 7.42827C6.32367 7.43472 7.33728 8.39142 7.34071 9.54232C7.34414 10.7086 6.32253 11.6728 5.08295 11.6728C3.84338 11.6728 2.82367 10.7097 2.8271 9.54232ZM2.8271 25.5023C2.8271 27.3261 2.83091 29.1499 2.82482 30.9737C2.82482 31.6466 2.14578 32.0447 1.56733 31.7233C1.24115 31.5423 1.13141 31.2607 1.13217 30.9124C1.1375 28.6909 1.13839 26.4694 1.13484 24.2478V22.8092C1.63021 23.1349 2.11682 23.318 2.65372 23.3395C2.87321 23.3485 2.82672 23.4667 2.8271 23.5792C2.82787 24.2201 2.82774 24.8611 2.82672 25.5023H2.8271ZM1.13446 20.6195C1.13217 19.2494 1.13217 17.8793 1.13446 16.5093C1.14208 14.3774 2.88083 12.665 5.14049 12.7618C6.84953 12.8334 8.38213 12.464 9.89873 11.7943C11.1871 11.2267 12.5204 10.7488 13.8358 10.2357C13.9173 10.2038 13.9951 10.1375 14.1128 10.1701C14.0781 10.656 14.1993 11.1017 14.5247 11.4958C14.6878 11.6929 14.4409 11.6836 14.3666 11.7169C13.06 12.3031 11.7476 12.8796 10.4372 13.4594C8.93733 14.1248 7.43902 14.793 5.93461 15.4487C5.72998 15.538 5.63815 15.6279 5.64082 15.8594C5.65606 17.1959 5.65606 18.5327 5.64082 19.87C5.63739 20.1301 5.7216 20.1792 5.97348 20.1684C6.43075 20.1491 6.88801 20.158 7.34795 20.1641C8.27734 20.1767 9.02688 20.8696 9.03183 21.7407C9.0406 23.3983 9.0364 25.0555 9.03183 26.713C9.03183 27.2207 8.67059 27.5873 8.18741 27.5891C7.70423 27.5909 7.34299 27.2218 7.34147 26.7155C7.33804 25.6216 7.34147 24.5277 7.34147 23.4337C7.34147 22.7171 6.87811 22.285 6.11333 22.2843C5.0437 22.2843 3.97446 22.2843 2.90522 22.2843C1.86265 22.2821 1.13598 21.5985 1.13446 20.6195ZM3.9516 23.5423C3.9516 23.3775 4.00838 23.3413 4.17147 23.3434C4.77011 23.3517 5.36913 23.3549 5.96776 23.3434C6.17125 23.3388 6.2185 23.3997 6.21697 23.5831C6.20783 24.6097 6.21697 25.6363 6.20973 26.6646C6.20745 27.0011 6.25584 27.3229 6.42579 27.6195C6.49019 27.7324 6.502 27.8069 6.38769 27.903C5.59052 28.5838 4.79907 29.2699 3.95427 29.9987C3.95541 27.8008 3.95731 25.6714 3.9516 23.5423ZM33.8679 31.5624C33.8679 31.7641 33.8351 31.8419 33.5893 31.8419C23.7177 31.8352 13.8462 31.8332 3.97484 31.8358C3.91845 31.8358 3.86053 31.8301 3.8007 31.8268C3.81099 31.6273 3.90511 31.489 4.05105 31.3632C5.09896 30.4602 6.14318 29.5536 7.18371 28.6432C7.31022 28.5322 7.41006 28.5078 7.58496 28.5562C8.93695 28.931 10.1826 28.0563 10.1498 26.7252C10.138 26.2526 10.2424 25.8961 10.6658 25.628C10.8333 25.5247 10.9819 25.3966 11.1059 25.2486C11.7026 24.5087 12.4899 24.3829 13.4437 24.3886C20.1186 24.4245 26.7936 24.4101 33.4685 24.4022C33.7734 24.4022 33.8751 24.4531 33.8728 24.7674C33.8561 27.0323 33.861 29.2972 33.8679 31.5624Z" fill="black"/>
<path d="M24.6165 26C24.0625 26 24.0625 26 24.0625 26.5415C24.0625 27.0968 24.0625 27.0968 24.6023 27.0968C25.1563 27.0968 25.1562 27.0968 25.1562 26.5553C25.1562 26 25.1562 26 24.6165 26Z" fill="black"/>
<path d="M27.6763 26C27.1563 26 27.1562 26 27.1562 26.5071C27.1562 27.0968 27.1562 27.0968 27.7305 27.0968C28.25 27.0968 28.25 27.0968 28.25 26.5897C28.25 26 28.25 26 27.6763 26Z" fill="black"/>
<path d="M30.7679 26C30.25 26 30.25 26 30.25 26.5092C30.25 27.0968 30.25 27.0968 30.8258 27.0968C31.3438 27.0968 31.3438 27.0968 31.3438 26.5899C31.3438 26 31.3438 26 30.7679 26Z" fill="black"/>
</g>
<defs>
<clipPath id="clip0_235_2260">
<rect width="35" height="33" fill="white"/>
</clipPath>
</defs>
</svg>
